X:1
T:Tugwood, LM
T:Tugwood, LM
T:Nicholas Comyn Gatty, 1906
T:Public Domain Courtesy of the Cyber Hymnal™
C:Nicholas Comyn Gatty, 1906
Z:Public Domain
Z:Courtesy of the Cyber Hymnal™
%%score ( 1 2 ) ( 3 4 )
L:1/8
Q:1/4=117
M:4/4
K:D
V:1 treble 
V:2 treble 
V:3 bass 
V:4 bass 
V:1
 [DA]4 [DA]2 [FA]2 | [EA]2 [FA]2 [GB]2 [GB]2 | [FA]8 | [DA]4 D2 [CE]2 | [DF]2 [EA]2 [DG]2 [DF]2 | %5
 [CE]8 | [DA]4 [DA]2 [FA]2 | [EA]2 [DF]2 [DB]2 [Fc]2 | [Fd]8 | G4 [CA]2 [B,B]2 | %10
 [CA]2 D2 [DE]2 [CE]2 | D8 |] %12
V:2
 x8 | x8 | x8 | x4 D2 x2 | x8 | x8 | x8 | x8 | x8 | E2 D2 x4 | x2 D2 x4 | D8 |] %12
V:3
 [D,F,]4 [F,A,]2 [G,D]2 | [A,C]2 [D,D]2 [G,D]2 [G,,D]2 | [D,D]8 | [F,,A,]4 [B,,F,]2 [A,,A,]2 | %4
 [D,A,]2 [C,A,]2 [B,,D]2 [D,A,]2 | [A,,A,]8 | [D,F,]4 [F,A,]2 [G,D]2 | %7
 [A,C]2 [D,D]2 [G,B,]2 [F,^A,]2 | [B,,B,]8 | [E,B,]4 [F,A,]2 G,2 | %10
 [G,,A,]2 [F,,A,]2 [G,,B,]2 [A,,A,]2 | [D,F,]8 |] %12
V:4
 x8 | x8 | x8 | x8 | x8 | x8 | x8 | x8 | x8 | x6 G,2 | x8 | x8 |] %12

